images/leaf-first.svg

<svg width="371" height="371" viewBox="0 0 371 371" fill="none" xmlns="http://www.w3.org/2000/svg">
<path fill-rule="evenodd" clip-rule="evenodd" d="M287.611 129.497C275.132 125.523 262.122 124.589 249.19 123.194C253.311 122.285 257.772 121.07 261.969 120.604C265.831 120.18 268.129 121.771 271.764 123.037C278.252 125.302 285.499 128.054 291.139 130.685C289.97 130.27 288.793 129.874 287.611 129.497V129.497ZM269.839 134.462C256.148 131.904 242.131 131.349 228.46 128.674C231.849 127.637 233.77 126.733 237.373 127.076C242.727 127.584 248.146 128.681 253.379 129.846C260.972 131.537 268.634 133.361 276.032 135.76C273.977 135.283 271.912 134.85 269.839 134.462V134.462ZM270.497 137.134C269.56 137.513 266.276 136.229 265.215 136C266.237 136.195 269.898 137.376 270.497 137.134ZM243.238 136.853C232.525 136.182 221.682 135.846 210.95 135.902C212.877 135.182 214.717 134.28 216.594 133.438C221.727 131.137 222.619 131.503 227.743 133.015C234.352 134.967 241.123 136.078 247.9 137.208C246.348 137.064 244.793 136.946 243.237 136.854L243.238 136.853ZM230.736 143.031C215.946 144.153 201.356 145.945 186.592 147.598C189.744 146.325 192.775 144.705 195.786 143.14C200.434 140.728 204.003 141.068 209.184 141.066C214.687 141.063 220.093 141.709 225.564 142.331C226.914 142.486 232.199 142.919 230.736 143.031V143.031ZM207.947 131.793C215.844 124.125 224.902 116.98 234.183 111.007C240.073 107.216 246.479 102.935 253.401 106.222C241.953 106.698 226.997 117.081 220.221 125.98C219.896 126.401 219.399 126.693 219.06 127.107C217.788 128.651 219.174 128.819 218.308 129.769C218.207 129.881 213.582 131.769 214.196 131.517C211.058 132.811 207.847 133.898 204.705 135.174C205.768 134.029 206.847 132.901 207.948 131.792L207.947 131.793ZM251.996 113.421C244.223 119.921 235.791 123.381 226.43 126.642C234.979 121.144 243.551 116.647 252.948 112.709C252.63 112.946 252.312 113.183 251.996 113.422L251.996 113.421ZM261.667 115.651C263.287 115.132 264.01 115.266 264.371 117.19C260.184 117.031 258.196 117.605 254.24 118.565C256.646 117.423 259.127 116.449 261.667 115.651V115.651ZM266.804 116.7C266.513 116.172 266.388 115.164 266.185 114.649C269.293 114.598 271.933 115.255 274.573 116.885C273.699 116.893 267.02 117.664 266.804 116.7L266.804 116.7ZM140.773 188.851C163.494 186.045 185.285 185.312 208.104 187.536C190.913 189.043 173.649 192.498 156.732 195.852C143.15 198.545 129.377 199.999 115.756 202.433C118.28 199.806 120.64 197.023 123.211 194.434C127.677 189.939 134.368 189.652 140.773 188.851V188.851ZM218.888 195.542C222.99 195.122 227.082 194.613 231.162 194.015C235.597 193.36 242.671 190.436 247.134 191.317C222.77 198.55 196.441 201.884 171.395 205.96C160.984 207.655 150.385 210.132 140.299 213.275C125.738 217.81 109.314 217.788 95.4168 224.159C99.6668 219.705 104.322 213.334 109.164 209.712C112.683 207.077 118.521 206.858 122.707 206.305C129.601 205.396 136.528 204.689 143.44 203.945C168.599 201.234 193.719 198.174 218.888 195.542V195.542ZM91.4775 219.667C89.4333 221.917 87.4437 224.216 85.5104 226.561C89.0197 210.101 88.8621 192.743 90.8388 176.034C91.9568 166.586 93.0058 157.032 94.5091 147.646C95.8383 139.358 96.1924 128.066 100.636 120.906C103.952 123.986 106.403 127.255 105.744 131.732C104.897 137.49 102.417 143.023 101.264 148.735C99.9677 155.154 99.0902 161.687 98.289 168.185C97.0566 178.179 96.7689 188.345 97.297 198.393C97.4397 201.218 97.6212 204.04 97.8414 206.86C97.938 208.09 98.5752 210.187 98.3036 211.337C97.6404 214.165 93.6158 217.299 91.4775 219.667V219.667ZM115.98 151.136C117.928 141.887 119.115 131.141 123.167 122.471C125.415 117.653 127.578 115.938 130.937 121.142C133.335 124.856 129.568 133.008 128.381 137.676C125.014 150.921 123.236 164.511 121.008 177.979C120.427 181.508 120.254 184.998 119.878 188.531C119.565 191.46 119.646 191.286 117.959 193.491C116.874 194.916 115.163 196.126 113.855 197.376C110.426 200.653 106.949 203.887 103.556 207.202C108.719 188.73 112.04 169.882 115.98 151.136V151.136ZM370.001 193.144C366.872 188.983 362.904 185.231 358.845 182.015C353.221 177.556 346.335 174.948 340.719 170.66C335.996 167.05 332.095 162.246 327.268 158.59C319.601 152.788 311.709 147.962 302.73 144.476C314.166 148.378 325.133 153.075 334.293 161.172C335.067 161.858 341.777 170.449 343.165 169.628C344.115 169.074 340.089 162.856 339.25 161.407C333.06 150.76 320.357 143.947 310.319 137.108C298.982 129.386 286.603 125.053 273.686 120.782C285.421 121.43 295.308 124.444 305.138 131.047C309.974 134.292 314.447 138.084 319.431 141.098C323.849 143.77 328.093 146.234 331.906 149.82C336.177 153.839 339.608 158.219 342.442 163.353C343.507 165.285 348.709 176.978 348.849 169.55C348.919 165.89 344.296 160.675 342.425 158.03C339.27 153.575 335.611 149.562 331.781 145.682C325.266 139.088 319.048 132.244 311.315 127.041C306.917 124.08 302.311 121.735 297.279 120.044C293.393 118.736 289.404 117.798 285.326 117.336C281.454 116.898 281.081 116.944 278 114.944C275.352 113.223 273.092 111.382 270.129 110.155C267.11 108.903 264.54 108.724 262.294 107.016C259.644 104.997 258.616 102.629 255.197 101.365C252.053 100.202 248.837 100.458 245.557 100.72C234.709 101.584 223.696 104.334 214.722 110.75C206.791 116.422 201.398 125.473 197.564 134.298C195.447 139.167 196.884 138.984 191.199 141.783C185.222 144.727 179.28 147.619 173.465 150.903C183.052 138.986 191.388 125.792 201.899 114.624C207.519 108.659 213.031 102.596 218.65 96.634C220.309 94.8772 233.411 82.2225 226.052 82.6715C224.35 82.7743 221.791 85.0486 220.227 85.7953C217.106 87.2933 214.007 88.6208 211.122 90.5784C206.122 93.972 202.04 98.194 197.95 102.585C187.357 113.96 177.809 126.126 172.921 141.061C171.763 144.595 171.34 148.579 169.527 151.822C168.249 154.11 166.749 154.9 164.155 156.59C159.706 159.483 155.382 162.458 151.169 165.693C161.942 149.738 168.891 131.883 177.379 114.704C188.297 92.6156 193.292 67.8262 202.475 45.0043C204.256 40.5776 206.426 35.7067 209.415 31.9389C210.324 30.793 213.197 29.0752 213.448 27.6304C214.111 23.819 211.53 24.8423 209.634 25.9384C204.989 28.6235 200.479 34.6799 197.305 38.7623C192.685 44.7003 188.007 51.1418 184.005 57.5395C170.22 79.5744 161.08 104.58 153.489 129.329C149.917 140.963 146.233 152.789 144.476 164.854C143.628 170.679 144.591 170.835 139.724 174.822C134.641 178.988 129.783 183.408 124.74 187.615C129.336 178.178 132.075 166.475 135.392 156.463C138.864 145.975 142.813 135.645 146.342 125.173C152.082 108.132 156.378 90.6845 160.51 73.2007C162.705 63.9048 164.762 54.6018 166.643 45.2405C169.061 33.2107 171.52 19.32 176.912 8.22306C177.717 6.57266 180.984 -1.09561 176.256 1.54555C174.09 2.75299 171.523 10.6547 170.417 12.7851C164.153 24.8843 158.877 37.1694 154.162 49.9457C145.805 72.6 139.94 95.8151 133.319 118.981C130.009 114.462 123.136 109.487 117.197 111.41C111.863 113.139 109.239 120.732 107.561 125.489C107.375 122.198 103.337 116.06 100.19 115.85C98.4013 115.73 95.3192 117.425 93.8235 118.132C90.1257 119.88 85.9256 122.092 83.6193 125.533C78.8929 132.591 79.7896 143.67 78.9498 151.839C76.449 176.203 76.8971 199.727 79.6512 223.991C80.2804 229.543 81.0409 232.119 77.8819 236.495C74.2738 241.495 70.7954 246.411 67.2427 251.105C68.3843 248.931 67.3527 242.286 67.3395 239.968C67.3029 233.758 67.3665 227.601 67.6888 221.396C68.3503 208.616 67.6644 195.408 67.0206 182.62C65.6949 156.272 65.8155 130.26 66.7037 103.919C66.8898 98.3682 66.7649 92.8518 66.7309 87.3041C66.7166 85.0136 67.4745 79.4028 63.8366 80.7442C62.7802 81.1333 62.0028 85.2298 61.6961 86.2688C58.8623 95.8462 57.9727 106.207 56.6748 116.043C55.4955 124.989 54.4182 133.95 53.6708 142.94C52.2348 160.211 52.709 176.982 52.7964 194.282C52.8699 208.533 54.415 224.026 57.0493 237.173C58.2846 243.339 60.4318 250.001 61.0572 256.215C61.4367 259.957 59.2467 261.344 56.7321 264.742C54.1874 268.178 51.6739 271.641 49.2453 275.16C49.4794 269.768 47.9425 264.193 47.5818 258.797C47.2795 254.289 46.9931 249.804 46.5872 245.301C46.2645 241.755 45.9604 238.205 45.6462 234.656C44.0267 216.387 42.4452 198.159 39.456 180.058C34.8606 152.262 29.8479 123.696 30.0337 95.4189C30.0706 90.0222 30.2449 84.6292 30.3074 79.2311C30.3533 75.1624 29.9793 71.1261 29.9555 67.0632C29.943 64.9911 30.8872 60.9843 30.1961 58.9197C28.1966 52.9457 26.4643 59.621 26.4087 62.3645C26.3806 63.81 26.294 65.2513 26.2719 66.6961C26.1383 75.7752 25.3567 84.73 24.9084 93.7988C24.2652 106.875 24.8398 119.886 25.2741 132.956C25.7484 147.193 25.392 161.528 26.9224 175.713C28.8963 193.996 32.8491 212.174 35.33 230.409C36.4095 238.35 37.9153 246.204 38.7324 254.182C39.4943 261.639 42.1407 268.969 43.7526 275.857L43.7437 275.329C44.3683 278.257 45.3486 279.72 44.4588 282.407C43.8315 284.294 42.1106 286.278 41.0799 288.012C38.8817 291.7 36.7717 295.431 34.6612 299.169C36.5317 289.681 33.9962 277.71 31.9891 268.39C29.7706 258.078 27.0669 247.516 23.9021 237.459C21.4409 229.638 19.4044 221.95 18.6611 213.809C17.6709 202.967 14.7223 192.54 13.1371 181.799C11.6414 171.657 9.12259 161.615 6.97595 151.576C6.49235 149.316 4.33393 138.506 0.822367 143.382C-0.0434395 144.585 1.01776 147.78 1.1538 149.024C1.48799 152.104 1.69625 155.135 1.83447 158.227C2.7306 177.858 6.84175 197.786 10.0641 217.128C12.1232 229.486 14.3038 241.889 17.313 254.052C19.6565 263.522 20.922 273.361 23.5215 282.698C24.7682 287.177 26.0346 291.755 28.0271 295.96C29.7604 299.62 31.5078 300.642 30.8963 304.586C30.0208 310.224 25.2204 316.077 23.0543 321.536C21.2826 325.999 19.476 330.47 17.7879 334.964C15.4298 341.26 13.2199 347.666 11.151 354.061C9.95017 357.765 7.62092 362.546 7.40281 366.313C7.0705 372.035 10.3093 370.398 12.0101 366.571C13.1542 363.995 14.0676 361.224 15.1437 358.605C23.0395 339.414 30.2692 318.838 42.0589 301.619C46.9767 294.428 60.571 292.695 68.5472 290.188C87.7351 284.149 108.492 283.353 128.401 281.146C144.455 279.37 160.248 277.736 175.965 273.788C178.26 273.213 220.153 260.879 219.102 258.728C219.689 259.935 173.27 270.265 169.553 270.57C157.896 271.52 146.275 271.775 134.593 272.269C105.37 273.506 76.6271 274.208 50.0746 288.015C53.4252 282.745 57.4333 272.797 63.315 270.756C74.6507 266.818 86.5977 264.275 98.018 260.435C109.89 256.449 122.082 253.779 134.023 250.085C145.951 246.395 157.853 242.572 169.962 239.469C182.134 236.35 194.708 233.1 207.356 233.501C212.224 233.656 217.106 234.087 221.953 234.545C223.784 234.718 238.355 237.412 230.476 234.066C225.374 231.897 218.694 231.73 213.228 230.934C206.961 230.024 200.953 229.216 194.618 229.266C180.824 229.372 166.967 232.606 153.634 235.807C137.677 239.634 121.065 243.432 105.832 249.591C91.8719 255.236 77.8399 260.656 63.8788 266.231C66.4175 262.345 69.1176 258.576 71.7589 254.759C73.0417 252.902 74.3952 249.889 76.2166 248.621C78.9964 246.684 84.8454 246.181 88.0741 245.106C101.064 240.787 114.114 235.714 127.425 232.501C148.828 227.333 170.74 224.128 192.275 219.529C204.844 216.848 218.153 214.482 231.004 214.71C235.838 214.798 240.679 214.622 245.425 215.643C247.104 216.003 249.218 216.933 250.948 217.129C256.122 217.709 252.283 215.22 249.144 214.132C224.265 205.519 196.842 212.405 171.764 215.91C155.179 218.225 138.805 220.587 122.97 226.292C108.379 231.547 94.4287 238.556 79.5952 243.171C83.483 237.646 86.9492 231.925 93.1608 228.885C100.035 225.524 107.28 224.062 114.782 222.788C130.379 220.13 145.872 216.728 161.519 214.413C175.894 212.29 190.242 210.406 204.491 207.507C218.364 204.682 232.157 203.031 245.398 197.691C249.59 196 254.673 193.069 259.149 192.813C264.951 192.482 271.976 194.22 277.665 195.082C291.521 197.177 305.904 199.337 318.713 205.202C331.281 210.958 339.815 220.004 349.436 229.461C352.467 232.445 355.45 235.479 358.472 238.471C359.145 239.138 363.162 244.146 363.99 244.21C369.114 244.594 359.448 234.438 357.78 232.357C346.253 217.976 333.779 205.982 316.821 198.147C302.369 191.469 287.26 187.126 271.5 184.902C271.54 182.053 283.151 181.911 283.47 178.96C283.891 175.025 275.766 178.963 274.156 179.447C271.098 180.365 268.124 181.513 265.051 182.382C257.996 184.376 250.189 181.92 243.022 181C234.38 179.896 225.625 179.172 216.934 178.649C188.164 176.914 160.56 177.868 132.615 185.577C137.63 181.185 142.861 177.011 148.161 172.969C150.224 171.396 151.797 169.955 154.135 169.217C158.083 167.97 162.771 168.527 166.887 168.124C183.159 166.537 199.357 164.753 215.719 164.251C242.645 163.425 270.72 168.258 296.256 176.818C308.713 180.996 320.935 185.059 331.753 192.749C334.257 194.527 336.484 196.568 338.76 198.623C339.701 199.472 345.446 205.649 345.738 205.616C348.229 205.35 336.676 192.565 334.997 190.932C312.435 169.003 283.16 164.017 253.267 159.615C222.007 155.009 190.631 157.455 159.834 164.404C165.984 160.567 172.028 153.991 178.932 151.76C184.176 150.064 190.832 150.386 196.138 149.842C211.526 148.26 227.655 150.947 243.076 152.039C260.497 153.271 277.42 155.506 294.263 160.147C302.881 162.522 311.274 165.035 319.682 168.119C326.346 170.563 331.783 172.068 337.175 176.534C339.35 178.352 345.82 183.18 349.321 186.462C350.749 187.803 352.228 190.635 353.842 191.309C359.854 193.817 351.875 184.021 350.565 182.321C355.344 185.176 359.805 188.482 364.048 192.002C364.887 192.7 365.69 193.233 366.54 193.87C367.538 194.621 368.06 196.812 369.768 196.082C371.159 195.484 370.665 194.051 370.001 193.144" fill="#012A32"/>
</svg>

<svg width="371" height="371" fill="none" xmlns="http://www.w3.org/2000/svg"><path fill-rule="evenodd" clip-rule="evenodd" d="M287.611 129.497c-12.479-3.974-25.489-4.908-38.421-6.303 4.121-.909 8.582-2.124 12.779-2.59 3.862-.424 6.16 1.167 9.795 2.433 6.488 2.265 13.735 5.017 19.375 7.648a115.027 115.027 0 0 0-3.528-1.188Zm-17.772 4.965c-13.691-2.558-27.708-3.113-41.379-5.788 3.389-1.037 5.31-1.941 8.913-1.598 5.354.508 10.773 1.605 16.006 2.77 7.593 1.691 15.255 3.515 22.653 5.914a147 147 0 0 0-6.193-1.298Zm.658 2.672c-.937.379-4.221-.905-5.282-1.134 1.022.195 4.683 1.376 5.282 1.134Zm-27.259-.281c-10.713-.671-21.556-1.007-32.288-.951 1.927-.72 3.767-1.622 5.644-2.464 5.133-2.301 6.025-1.935 11.149-.423 6.609 1.952 13.38 3.063 20.157 4.193a139.782 139.782 0 0 0-4.663-.354l.001-.001Zm-12.502 6.178c-14.79 1.122-29.38 2.914-44.144 4.567 3.152-1.273 6.183-2.893 9.194-4.458 4.648-2.412 8.217-2.072 13.398-2.074 5.503-.003 10.909.643 16.38 1.265 1.35.155 6.635.588 5.172.7Zm-22.789-11.238c7.897-7.668 16.955-14.813 26.236-20.786 5.89-3.791 12.296-8.072 19.218-4.785-11.448.476-26.404 10.859-33.18 19.758-.325.421-.822.713-1.161 1.127-1.272 1.544.114 1.712-.752 2.662-.101.112-4.726 2-4.112 1.748-3.138 1.294-6.349 2.381-9.491 3.657a139.822 139.822 0 0 1 3.243-3.382l-.001.001Zm44.049-18.372c-7.773 6.5-16.205 9.96-25.566 13.221 8.549-5.498 17.121-9.995 26.518-13.933-.318.237-.636.474-.952.713v-.001Zm9.671 2.23c1.62-.519 2.343-.385 2.704 1.539-4.187-.159-6.175.415-10.131 1.375a57.541 57.541 0 0 1 7.427-2.914Zm5.137 1.049c-.291-.528-.416-1.536-.619-2.051 3.108-.051 5.748.606 8.388 2.236-.874.008-7.553.779-7.769-.185Zm-126.031 72.151c22.721-2.806 44.512-3.539 67.331-1.315-17.191 1.507-34.455 4.962-51.372 8.316-13.582 2.693-27.355 4.147-40.976 6.581 2.524-2.627 4.884-5.41 7.455-7.999 4.466-4.495 11.157-4.782 17.562-5.583Zm78.115 6.691c4.102-.42 8.194-.929 12.274-1.527 4.435-.655 11.509-3.579 15.972-2.698-24.364 7.233-50.693 10.567-75.739 14.643-10.411 1.695-21.01 4.172-31.096 7.315-14.561 4.535-30.985 4.513-44.882 10.884 4.25-4.454 8.905-10.825 13.747-14.447 3.519-2.635 9.357-2.854 13.543-3.407 6.894-.909 13.821-1.616 20.733-2.36 25.159-2.711 50.279-5.771 75.448-8.403Zm-127.41 24.125a189.798 189.798 0 0 0-5.968 6.894c3.51-16.46 3.352-33.818 5.329-50.527 1.118-9.448 2.167-19.002 3.67-28.388 1.33-8.288 1.683-19.58 6.127-26.74 3.316 3.08 5.767 6.349 5.108 10.826-.847 5.758-3.327 11.291-4.48 17.003-1.296 6.419-2.174 12.952-2.975 19.45-1.232 9.994-1.52 20.16-.992 30.208.143 2.825.324 5.647.544 8.467.097 1.23.734 3.327.463 4.477-.664 2.828-4.688 5.962-6.826 8.33Zm24.502-68.531c1.948-9.249 3.135-19.995 7.187-28.665 2.248-4.818 4.411-6.533 7.77-1.329 2.398 3.714-1.369 11.866-2.556 16.534-3.367 13.245-5.145 26.835-7.373 40.303-.581 3.529-.754 7.019-1.13 10.552-.313 2.929-.232 2.755-1.919 4.96-1.085 1.425-2.796 2.635-4.104 3.885-3.429 3.277-6.906 6.511-10.299 9.826 5.163-18.472 8.484-37.32 12.424-56.066Zm254.021 42.008c-3.129-4.161-7.097-7.913-11.156-11.129-5.624-4.459-12.51-7.067-18.126-11.355-4.723-3.61-8.624-8.414-13.451-12.07-7.667-5.802-15.559-10.628-24.538-14.114 11.436 3.902 22.403 8.599 31.563 16.696.774.686 7.484 9.277 8.872 8.456.95-.554-3.076-6.772-3.915-8.221-6.19-10.647-18.893-17.46-28.931-24.299-11.337-7.722-23.716-12.055-36.633-16.326 11.735.648 21.622 3.662 31.452 10.265 4.836 3.245 9.309 7.037 14.293 10.051 4.418 2.672 8.662 5.136 12.475 8.722 4.271 4.019 7.702 8.399 10.536 13.533 1.065 1.932 6.267 13.625 6.407 6.197.07-3.66-4.553-8.875-6.424-11.52-3.155-4.455-6.814-8.468-10.644-12.348-6.515-6.594-12.733-13.438-20.466-18.641-4.398-2.961-9.004-5.306-14.036-6.997-3.886-1.308-7.875-2.246-11.953-2.708-3.872-.438-4.245-.392-7.326-2.392-2.648-1.721-4.908-3.562-7.871-4.789-3.019-1.252-5.589-1.431-7.835-3.139-2.65-2.019-3.678-4.387-7.097-5.651-3.144-1.163-6.36-.907-9.64-.645-10.848.864-21.861 3.614-30.835 10.03-7.931 5.672-13.324 14.723-17.158 23.548-2.117 4.869-.68 4.686-6.365 7.485-5.977 2.944-11.919 5.836-17.734 9.12 9.587-11.917 17.923-25.111 28.434-36.279 5.62-5.965 11.132-12.028 16.751-17.99 1.659-1.757 14.761-14.412 7.402-13.963-1.702.103-4.261 2.378-5.825 3.124-3.121 1.498-6.22 2.826-9.105 4.783-5 3.394-9.082 7.616-13.172 12.007-10.593 11.375-20.141 23.541-25.029 38.476-1.158 3.534-1.581 7.518-3.394 10.761-1.278 2.288-2.778 3.078-5.372 4.768-4.449 2.893-8.773 5.868-12.986 9.103 10.773-15.955 17.722-33.81 26.21-50.989 10.918-22.088 15.913-46.878 25.096-69.7 1.781-4.426 3.951-9.297 6.94-13.065.909-1.146 3.782-2.864 4.033-4.309.663-3.811-1.918-2.788-3.814-1.692-4.645 2.686-9.155 8.742-12.329 12.824-4.62 5.938-9.298 12.38-13.3 18.777-13.785 22.035-22.925 47.041-30.516 71.79-3.572 11.634-7.256 23.46-9.013 35.525-.848 5.825.115 5.981-4.752 9.968-5.083 4.166-9.941 8.586-14.984 12.793 4.596-9.437 7.335-21.14 10.652-31.152 3.472-10.488 7.421-20.818 10.95-31.29 5.74-17.041 10.036-34.489 14.168-51.972a851.67 851.67 0 0 0 6.133-27.96c2.418-12.03 4.877-25.921 10.269-37.018.805-1.65 4.072-9.319-.656-6.677-2.166 1.207-4.733 9.109-5.839 11.24-6.264 12.098-11.54 24.383-16.255 37.16-8.357 22.654-14.222 45.87-20.843 69.035-3.31-4.519-10.183-9.494-16.122-7.571-5.334 1.729-7.958 9.322-9.636 14.079-.186-3.291-4.224-9.429-7.371-9.639-1.789-.12-4.87 1.575-6.367 2.282-3.697 1.748-7.897 3.96-10.204 7.401-4.726 7.058-3.83 18.137-4.67 26.306-2.5 24.364-2.052 47.888.702 72.152.63 5.552 1.39 8.128-1.77 12.504-3.607 5-7.086 9.916-10.638 14.61 1.141-2.174.11-8.819.097-11.137-.037-6.21.026-12.367.349-18.572.661-12.78-.025-25.988-.668-38.776-1.326-26.348-1.206-52.36-.317-78.701.186-5.55.06-11.067.027-16.615-.014-2.29.744-7.901-2.894-6.56-1.057.39-1.834 4.486-2.14 5.525-2.835 9.577-3.724 19.938-5.022 29.774-1.18 8.946-2.257 17.907-3.004 26.897-1.436 17.271-.962 34.042-.875 51.342.074 14.251 1.619 29.744 4.253 42.891 1.236 6.166 3.383 12.828 4.008 19.042.38 3.742-1.81 5.129-4.325 8.527-2.545 3.436-5.058 6.899-7.487 10.418.234-5.392-1.302-10.967-1.663-16.363-.303-4.508-.589-8.993-.995-13.496-.323-3.546-.627-7.096-.94-10.645-1.62-18.269-3.202-36.497-6.191-54.598-4.595-27.796-9.608-56.362-9.422-84.64.037-5.396.21-10.789.273-16.187.046-4.069-.328-8.105-.351-12.168-.013-2.072.931-6.079.24-8.143-2-5.974-3.732.701-3.787 3.444-.028 1.446-.115 2.887-.137 4.332-.134 9.08-.915 18.034-1.364 27.103-.643 13.076-.068 26.087.366 39.157.474 14.237.118 28.572 1.648 42.757 1.974 18.283 5.927 36.461 8.408 54.696 1.08 7.941 2.585 15.795 3.402 23.773.762 7.457 3.409 14.787 5.02 21.675l-.008-.528c.624 2.928 1.605 4.391.715 7.078-.628 1.887-2.348 3.871-3.38 5.605-2.197 3.688-4.307 7.419-6.418 11.157 1.87-9.488-.665-21.459-2.672-30.779-2.218-10.312-4.922-20.874-8.087-30.931-2.461-7.821-4.498-15.509-5.24-23.65-.991-10.842-3.94-21.269-5.525-32.01-1.496-10.142-4.014-20.184-6.161-30.223-.484-2.26-2.642-13.07-6.154-8.194-.865 1.203.196 4.398.332 5.642.334 3.08.542 6.111.68 9.203.897 19.631 5.008 39.559 8.23 58.901 2.06 12.358 4.24 24.761 7.249 36.924 2.344 9.47 3.609 19.309 6.209 28.646 1.246 4.479 2.513 9.057 4.505 13.262 1.733 3.66 3.48 4.682 2.87 8.626-.876 5.638-5.677 11.491-7.843 16.95-1.771 4.463-3.578 8.934-5.266 13.428a445.79 445.79 0 0 0-6.637 19.097c-1.2 3.704-3.53 8.485-3.748 12.252-.332 5.722 2.906 4.085 4.607.258 1.144-2.576 2.058-5.347 3.134-7.966 7.896-19.191 15.125-39.767 26.915-56.986 4.918-7.191 18.512-8.924 26.488-11.431 19.188-6.039 39.945-6.835 59.854-9.042 16.054-1.776 31.847-3.41 47.564-7.358 2.295-.575 44.188-12.909 43.137-15.06.587 1.207-45.832 11.537-49.549 11.842-11.657.95-23.278 1.205-34.96 1.699-29.223 1.237-57.966 1.939-84.518 15.746 3.35-5.27 7.358-15.218 13.24-17.259 11.336-3.938 23.283-6.481 34.703-10.321 11.872-3.986 24.064-6.656 36.005-10.35 11.928-3.69 23.83-7.513 35.939-10.616 12.172-3.119 24.746-6.369 37.394-5.968 4.868.155 9.75.586 14.597 1.044 1.831.173 16.402 2.867 8.523-.479-5.102-2.169-11.782-2.336-17.248-3.132-6.267-.91-12.275-1.718-18.61-1.668-13.794.106-27.651 3.34-40.984 6.541-15.957 3.827-32.569 7.625-47.802 13.784-13.96 5.645-27.992 11.065-41.953 16.64 2.539-3.886 5.239-7.655 7.88-11.472 1.283-1.857 2.636-4.87 4.458-6.138 2.78-1.937 8.628-2.44 11.857-3.515 12.99-4.319 26.04-9.392 39.351-12.605 21.403-5.168 43.315-8.373 64.85-12.972 12.569-2.681 25.878-5.047 38.729-4.819 4.834.088 9.675-.088 14.421.933 1.679.36 3.793 1.29 5.523 1.486 5.174.58 1.335-1.909-1.804-2.997-24.879-8.613-52.302-1.727-77.38 1.778-16.585 2.315-32.959 4.677-48.794 10.382-14.591 5.255-28.541 12.264-43.375 16.879 3.888-5.525 7.354-11.246 13.566-14.286 6.874-3.361 14.119-4.823 21.621-6.097 15.597-2.658 31.09-6.06 46.737-8.375 14.375-2.123 28.723-4.007 42.972-6.906 13.873-2.825 27.666-4.476 40.907-9.816 4.192-1.691 9.275-4.622 13.751-4.878 5.802-.331 12.827 1.407 18.516 2.269 13.856 2.095 28.239 4.255 41.048 10.12 12.568 5.756 21.102 14.802 30.723 24.259 3.031 2.984 6.014 6.018 9.036 9.01.673.667 4.69 5.675 5.518 5.739 5.124.384-4.542-9.772-6.21-11.853-11.527-14.381-24.001-26.375-40.959-34.21-14.452-6.678-29.561-11.021-45.321-13.245.04-2.849 11.651-2.991 11.97-5.942.421-3.935-7.704.003-9.314.487-3.058.918-6.032 2.066-9.105 2.935-7.055 1.994-14.862-.462-22.029-1.382-8.642-1.104-17.397-1.828-26.088-2.351-28.77-1.735-56.374-.781-84.319 6.928 5.015-4.392 10.246-8.566 15.546-12.608 2.063-1.573 3.636-3.014 5.974-3.752 3.948-1.247 8.636-.69 12.752-1.093 16.272-1.587 32.47-3.371 48.832-3.873 26.926-.826 55.001 4.007 80.537 12.567 12.457 4.178 24.679 8.241 35.497 15.931 2.504 1.778 4.731 3.819 7.007 5.874.941.849 6.686 7.026 6.978 6.993 2.491-.266-9.062-13.051-10.741-14.684-22.562-21.929-51.837-26.915-81.73-31.317-31.26-4.606-62.636-2.16-93.433 4.789 6.15-3.837 12.194-10.413 19.098-12.644 5.244-1.696 11.9-1.374 17.206-1.918 15.388-1.582 31.517 1.105 46.938 2.197 17.421 1.232 34.344 3.467 51.187 8.108 8.618 2.375 17.011 4.888 25.419 7.972 6.664 2.444 12.101 3.949 17.493 8.415 2.175 1.818 8.645 6.646 12.146 9.928 1.428 1.341 2.907 4.173 4.521 4.847 6.012 2.508-1.967-7.288-3.277-8.988 4.779 2.855 9.24 6.161 13.483 9.681.839.698 1.642 1.231 2.492 1.868.998.751 1.52 2.942 3.228 2.212 1.391-.598.897-2.031.233-2.938" fill="#012A32"/></svg>
